assets/icons/qvision/format_align_left.svg

<svg xmlns="http://www.w3.org/2000/svg" height="24" viewBox="0 0 24 24" width="24"><path d="M0 0h24v24H0z" fill="none"/><path d="M15 15H3v2h12v-2zm0-8H3v2h12V7zM3 13h18v-2H3v2zm0 8h18v-2H3v2zM3 3v2h18V3H3z"/></svg>

<svg width="24" height="24" viewBox="0 0 24 24" fill="none" xmlns="http://www.w3.org/2000/svg">
<g clip-path="url(#clip0_147_2580)">
<path d="M15 15H3V17H15V15ZM15 7H3V9H15V7ZM3 13H21V11H3V13ZM3 21H21V19H3V21ZM3 3V5H21V3H3Z" fill="#323232"/>
</g>
<defs>
<clipPath id="clip0_147_2580">
<rect width="24" height="24" fill="white"/>
</clipPath>
</defs>
</svg>
